X: 203
T: Cai diao
%%abc-version 2.0
%%abcx-abcm2ps-target-version 5.9.1 (29 Sep 2008)
%%abc-creator hum2abc beta
%%abcx-conversion-date 2013/10/02 07:44:28
%%abc-edited-by Helmut Schaffrath
%%humdrum-veritas 862692426
%%humdrum-veritas-data 73630784
%%continueall 1
%%barnumbers 0
L: 1/16
M: 2/4
K: A
e2 a2 [I:setbarnb 1]| 
a2 f e e e f e | 
e e G> A A A B2 | 
B e G2 G E/ A/ B2 | 
e G/ A/ G2 A B B2 | 
B e G G e G G/ A/ B | 
d G/ A/ G G A2 B2 | 
B2A4F2 | 
E8 |]  



